img/plasticpanda-logo.svg

<svg height="47" viewBox="0 0 238 47" width="238" xmlns="http://www.w3.org/2000/svg"><g fill="#585454"><path d="m68.9137349 20.7373494c-1.899759-2.499759-5.0645783-5.486747-6.8645783-6.9093976.1142169-.5320482.1098795-1.0872289-.0202409-1.6120482-.24-.9657831-.8891567-1.7681928-1.8303615-2.25831324-.4756626-.2486747-.9975903-.37445783-1.5513253-.37445783-.2081928 0-.4106024.02024096-.6072289.05204819-.0693976.01156627-.1344578.03036145-.2024096.04626506-.1243374.0260241-.2486747.0520482-.3657832.08674699-.0780723.02313253-.1489156.05204819-.2226506.07951807-.099759.0346988-.2009638.06795181-.2949397.10843374-.0751808.03180723-.1431326.06650602-.2139759.09975902-.0824097.0390362-.1648193.0766265-.24.1171084-.0144579.007229-.0318073.0144579-.0462651.0216868-3.3715663-2.11518073-16.7898795-9.93831326-30.7113253-9.93831326-9.8631325 0-18.42506024 5.13542169-22.62650602 12.61301206l-.2486747.4236144c-1.69301205 2.8930121-2.51566265 6.1677109-2.51566265 10.0149398 0 .393253.01156626.7821687.03325301 1.1710843.00289157.0448193.00722892.0881928.01012048.1330121.69686747 11.5301205 10.56578318 20.9248193 23.04289158 21.653494l.4669879.0274698c.2327711.0159037.4640964.0318073.6983133.0419278l.12.0072289v-.0043374c.3383132.0130121.6780723.0231326 1.0207229.0231326.3701205 0 .7402409-.0144579 1.1089156-.0274699l-.0057831.013012.2168675-.0187952c.6549397-.0303614 1.3040964-.0896385 1.9503614-.1648192l.1980723-.0159036c5.5113253-.4655422 10.9344579-3.0346988 15.0520482-7.0640964.0274699-.0260241.0549398-.0520482.0824097-.0780723.286265-.2833735.5667469-.5725301.84-.8689157.0216867-.0231325.0448192-.0448193.066506-.0693976.219759-.2212048.4510843-.4843373.6809638-.7749397.5840964-.6939759 1.1277109-1.4226506 1.6178314-2.1657832l.013012-.0159036c1.8621687-2.4563855 4.1320482-4.7190361 8.0587952-4.7190361l3.1113253.0072289c3.6115663 0 5.6414458-.0968675 6.7156626-.6289157.9990362-.493012 3.7286747-2.3609638 4.3619277-5.0501205.3281928-1.4009638.0173494-2.7759036-.8992771-3.9816867zm-43.9055421 22.7985542c.1171084-4.8115663-1.0640964-19.9301205-18.99759039-30.0621687 3.86457831-6.20385538 11.25975899-10.4110843 19.73204819-10.4110843 1.9416867 0 3.8819277.17060241 5.7918072.46409639 2.7325302 21.79807231-2.1556626 36.54795181-3.4308433 39.91373491-.7792772.0722892-1.567229.1127711-2.3609639.1127711-.2457831-.0014458-.4901205-.0101205-.7344578-.0173494zm39.199518-16.2853012c-.6896385.3383133-4.2896385.3383133-5.4737349.3383133l-3.1113253-.007229c-2.7021687 0-4.7913253.8081928-6.4872289 1.9893976 1.1277108-6.4959036.4612048-14.5069879-5.3479518-22.58891563 5.7354217 2.29012049 10.059759 4.89253013 11.4289156 5.75566263 1.4255422.9166265 2.8756627 1.8057832 4.2853012 2.746988 2.0978314 1.4038554 3.9455422 3.2587952 5.6385543 5.1209638.2486747.2746988.493012.5522892.733012.8342169.0693976.0824096.7026506.7503614.6679518.819759-.2660241.5277109-.4583132 1.153735-.3802409 1.807229.0520481.4380722.1980722.7619277.3036144.9990361.020241.0433735.0433735.0968675.0621687.1387952-.6693976.9484337-1.7320482 1.7566265-2.3190362 2.0457831z"/><g transform="translate(55.385542 16.349398)"><circle cx="5.152771" cy="5.314699" r="1"/><path d="m3.90506024.8313253c-2.12963855 0-3.85445783 1.72626506-3.85445783 3.85590362 0 2.12963855 1.72626506 3.85590361 3.85445783 3.85590361 2.12963856 0 3.85590362-1.72626506 3.85590362-3.85590361 0-2.13108434-1.72626506-3.85590362-3.85590362-3.85590362zm1.24771084 6.04048193c-.85734939 0-1.55710843-.69831325-1.55710843-1.55566265 0-.85879518.69831325-1.55710844 1.55710843-1.55710844.85879519 0 1.55566265.69831326 1.55566265 1.55710844 0 .8573494-.69831325 1.55566265-1.55566265 1.55566265z"/></g><path d="m171.639518 16.8293976c-.047711 0-.095422 0-.143132.0014458-3.957109.0679518-6.796627 2.9566265-6.796627 6.8833735v12.9296385h2.181687v-7.9156626c1.306988 1.1812048 3.098313 1.8708433 5.093494 1.8708433 3.666506 0 6.549397-2.9681927 6.549397-6.8848192 0-3.9730121-2.77012-6.8848193-6.884819-6.8848193zm-.111325 11.7556626c-2.660241 0-4.479036-2.1831325-4.479036-4.8708433 0-1.9677109.825542-3.6665061 2.423132-4.4342169.008675-.0057831.018795-.0086747.02747-.013012.001446 0 .002892 0 .005783-.0014458.592771-.2718073 1.270844-.4207229 2.021205-.4207229 2.826506 0 4.645302 2.126747 4.645302 4.8708434.001445 2.7426506-1.81735 4.8693975-4.643856 4.8693975zm49.990843-9.8298795c-1.306988-1.1812048-3.099759-1.8708434-5.093494-1.8708434-3.666506 0-6.550843 2.9681928-6.550843 6.8848193 0 3.9744579 2.771566 6.8848193 6.884819 6.8848193.047711 0 .096868 0 .143133-.0014458 1.836144-.0318072 3.430843-.6708434 4.614939-1.7392771v1.3677109h2.183133v-6.5103615-.2472289-14.18168675h-2.183133v9.41349395zm-2.590843 9.4481928c-.008675.0043373-.018795.0086747-.02747.013012-.001446 0-.002892.0014458-.005783.0028916-.591326.2703615-1.270844.4207229-2.021205.4207229-2.826506 0-4.645301-2.126747-4.645301-4.8693976s1.818795-4.8708434 4.645301-4.8708434c2.660241 0 4.479036 2.1831326 4.479036 4.8708434-.001446 1.9662651-.828434 3.6650603-2.424578 4.4327711zm-91.512289-5.619759c-1.736386-.3354217-3.302169-.8110844-3.302169-1.9026506 0-1.2318073 1.372048-1.8187952 2.57494-1.8187952 1.286747 0 2.210602.6433735 2.77012 1.5672289l1.818795-1.2043374c-.896385-1.6785542-2.603855-2.3783132-4.45012-2.3783132-2.436145 0-4.898313 1.3142169-4.898313 3.8616867 0 2.7151808 2.126747 3.247229 4.617831 3.806747 1.399518.3079518 2.799036.6708434 2.799036 2.0703615 0 1.4269879-1.510843 2.0139759-2.882891 2.0139759-1.53976 0-2.491085-.6997591-3.358555-1.7638554l-1.734939 1.3431325c1.288192 1.8477108 2.882891 2.4346988 5.093494 2.4346988 2.602409 0 5.233734-1.146506 5.233734-4.1146988 0-2.6284338-1.959036-3.4684338-4.280963-3.9151807zm-34.7277112-5.7383133c-.0491567 0-.0954217 0-.1445783.0014458-3.9556627.0693976-6.7966265 2.9566265-6.7966265 6.8848193v12.9310843h2.1831325v-7.9171084c1.3069879 1.1812048 3.0983132 1.8708433 5.093494 1.8708433 3.666506 0 6.5493975-2.9667469 6.5493975-6.8848192 0-3.9744579-2.7701204-6.8862651-6.8848192-6.8862651zm-.1113253 11.7556627c-2.6587952 0-4.4775904-2.1831326-4.4775904-4.8693976 0-1.9691567.826988-3.6665061 2.4231325-4.4342169.0101205-.0043374.0187952-.0086747.0274699-.0130121.0014458 0 .0043374-.0014457.0057832-.0014457.592771-.2703615 1.2722891-.4207229 2.0212048-.4207229 2.826506 0 4.646747 2.126747 4.646747 4.8708433-.0014458 2.7412049-1.820241 4.8679519-4.646747 4.8679519zm10.2202405 1.6785542h2.183133v-21.15903617h-2.183133zm37.213012-1.6785542c-1.931566 0-1.959036-1.3431326-1.959036-3.0216868v-6.5493976h3.863133v-1.8477108h-3.863133v-3.7228916h-2.183132v3.7228916h-2.853976v1.8477108h2.853976v7.1927711c0 2.7137349.504578 4.3937349 3.61012 4.3937349.81253 0 1.791326-.1387951 2.54747-.4756626l-.083855-1.986506c-.588434.306506-1.288193.446747-1.931567.446747zm62.142651-11.7556627c-2.154217 0-3.779277 1.2043374-4.364819 2.4910843h-.056386c0-.7272289-.054939-1.4559036-.054939-2.1556626h-2.070362c0 .8689157.111325 1.9040964.111325 3.1069879v9.9918073h2.183133v-6.3816868c0-2.9956626 1.231807-5.0371084 4.058313-5.0371084 2.042892 0 2.995663 1.3706024 2.995663 3.5551807v7.8650603h2.183132v-8.0877109c-.002891-3.1648193-1.54265-5.3479518-4.98506-5.3479518zm-57.357108 13.4342169h2.183132v-13.0987952h-2.183132zm12.539277-11.4187952c1.315662 0 2.379759.4756626 3.303614 1.5961446l1.73494-1.5397591c-1.314217-1.4269879-3.106988-2.0703614-5.037108-2.0703614-4.030844 0-6.773494 2.9118072-6.773494 6.8848193 0 4.0308433 2.71518 6.8848192 6.773494 6.8848192 1.904096 0 3.693975-.6433735 4.953253-2.0992771l-1.623615-1.539759c-.811084 1.1204819-1.902651 1.6236145-3.331084 1.6236145-2.658795 0-4.422651-2.1831326-4.422651-4.8693976 0-2.6877109 1.483374-4.8708434 4.422651-4.8708434zm-11.447711-8.3971084c-.89494 0-1.594699.7272289-1.594699 1.5961445 0 .9224097.670843 1.5961446 1.594699 1.5961446.923855 0 1.594699-.6722891 1.594699-1.5961446 0-.8689156-.698314-1.5961445-1.594699-1.5961445zm86.360964 6.4322891c-1.904097 0-3.863133.6433735-5.206265 2.0139759l1.370602 1.4284338c1.036627-.9513253 2.491084-1.4284338 3.890603-1.4284338 2.042891 0 3.245783.980241 3.245783 2.8843374v.3918072h-.84c-3.218314 0-8.256868.2515663-8.256868 4.5903614 0 2.5460241 2.210603 3.8906025 4.870844 3.8906025h.026024l-.004338.0028915s2.355181.12 4.204338-1.0684337v.6795181h2.183133v-5.0139759-1.7436145-1.0857831c.001445-3.6954217-1.622169-5.5416868-5.483856-5.5416868zm3.302168 7.9763856c-.056385 2.1267469-1.344578 3.9469879-3.863132 3.9469879-1.651084 0-2.882892-.6159036-2.882892-2.2684337 0-1.7624097 1.791326-2.5185542 4.561446-2.5185542h2.183133v.84zm-48.633253-7.9763856c-1.90265 0-3.863132.6433735-5.206265 2.0139759l1.372049 1.4284338c1.03518-.9513253 2.491084-1.4284338 3.889156-1.4284338 2.042892 0 3.247229.980241 3.247229 2.8843374v.3918072h-.84c-3.218313 0-8.256867.2515663-8.256867 4.5903614 0 2.5460241 2.212048 3.8906025 4.870843 3.8906025h.024578l-.002891.0028915s2.353735.12 4.204337-1.0684337v.6795181h2.181688v-5.0139759-1.7436145-1.0857831c.001445-3.6954217-1.62217-5.5416868-5.483857-5.5416868zm3.302169 7.9778313c-.057831 2.126747-1.344578 3.9455422-3.861687 3.9455422-1.65253 0-2.884337-.6159036-2.884337-2.2684337 0-1.7624097 1.791325-2.5185542 4.562892-2.5185542h2.183132zm-76.431325-7.9778313c-1.904097 0-3.861687.6433735-5.206265 2.0139759l1.372048 1.4284338c1.035181-.9513253 2.491084-1.4284338 3.890602-1.4284338 2.042892 0 3.247229.980241 3.247229 2.8843374v.3918072h-.84c-3.218313 0-8.256867.2515663-8.256867 4.5903614 0 2.5460241 2.210602 3.8906025 4.869397 3.8906025h.026024l-.002891.0028915s2.355181.12 4.204337-1.0684337v.6795181h2.183133v-5.0139759-1.7436145-1.0857831c-.001446-3.6954217-1.62506-5.5416868-5.486747-5.5416868zm3.302168 7.9763856c-.056385 2.1267469-1.344578 3.9469879-3.863132 3.9469879-1.651084 0-2.882892-.6159036-2.882892-2.2684337 0-1.7624097 1.791326-2.5185542 4.562892-2.5185542h2.183132z"/></g></svg>

<?xml version="1.0" encoding="UTF-8"?>
<svg width="238px" height="47px" viewBox="0 0 238 47" version="1.1" xmlns="http://www.w3.org/2000/svg" xmlns:xlink="http://www.w3.org/1999/xlink">
    <!-- Generator: Sketch 64 (93537) - https://sketch.com -->
    <title>plasticpanda</title>
    <desc>Created with Sketch.</desc>
    <g id="Plasticpanda" stroke="none" stroke-width="1" fill="none" fill-rule="evenodd">
        <g id="MacBook-13&quot;" transform="translate(-521.000000, -489.000000)" fill="#585454" fill-rule="nonzero">
            <g id="plasticpanda" transform="translate(521.000000, 489.000000)">
                <g id="Group">
                    <path d="M68.9137349,20.7373494 C67.0139759,18.2375904 63.8491566,15.2506024 62.0491566,13.8279518 C62.1633735,13.2959036 62.1590361,12.7407229 62.0289157,12.2159036 C61.7889157,11.2501205 61.139759,10.4477108 60.1985542,9.95759036 C59.7228916,9.70891566 59.2009639,9.58313253 58.6472289,9.58313253 C58.4390361,9.58313253 58.2366265,9.60337349 58.04,9.63518072 C57.9706024,9.64674699 57.9055422,9.66554217 57.8375904,9.68144578 C57.713253,9.70746988 57.5889157,9.73349398 57.4718072,9.76819277 C57.3937349,9.7913253 57.3228916,9.82024096 57.2491566,9.84771084 C57.1493976,9.88240964 57.0481928,9.91566265 56.9542169,9.95614458 C56.8790361,9.98795181 56.8110843,10.0226506 56.740241,10.0559036 C56.6578313,10.0949398 56.5754217,10.1325301 56.500241,10.173012 C56.4857831,10.180241 56.4684337,10.1874699 56.4539759,10.1946988 C53.0824096,8.07951807 39.6640964,0.256385542 25.7426506,0.256385542 C15.8795181,0.256385542 7.31759036,5.39180723 3.11614458,12.8693976 L2.86746988,13.293012 C1.17445783,16.1860241 0.351807229,19.4607229 0.351807229,23.3079518 C0.351807229,23.7012048 0.363373494,24.0901205 0.385060241,24.4790361 C0.387951807,24.5238554 0.392289157,24.5672289 0.395180723,24.6120482 C1.09204819,36.1421687 10.9609639,45.5368675 23.4380723,46.2655422 L23.9050602,46.293012 C24.1378313,46.3089157 24.3691566,46.3248193 24.6033735,46.3349398 L24.7233735,46.3421687 L24.7233735,46.3378313 C25.0616867,46.3508434 25.4014458,46.3609639 25.7440964,46.3609639 C26.1142169,46.3609639 26.4843373,46.346506 26.853012,46.333494 L26.8472289,46.346506 L27.0640964,46.3277108 C27.7190361,46.2973494 28.3681928,46.2380723 29.0144578,46.1628916 L29.2125301,46.146988 C34.7238554,45.6814458 40.146988,43.1122892 44.2645783,39.0828916 C44.2920482,39.0568675 44.3195181,39.0308434 44.346988,39.0048193 C44.633253,38.7214458 44.9137349,38.4322892 45.186988,38.1359036 C45.2086747,38.1127711 45.2318072,38.0910843 45.253494,38.066506 C45.473253,37.8453012 45.7045783,37.5821687 45.9344578,37.2915663 C46.5185542,36.5975904 47.0621687,35.8689157 47.5522892,35.1257831 L47.5653012,35.1098795 C49.4274699,32.653494 51.6973494,30.3908434 55.6240964,30.3908434 L58.7354217,30.3980723 C62.346988,30.3980723 64.3768675,30.3012048 65.4510843,29.7691566 C66.4501205,29.2761446 69.179759,27.4081928 69.813012,24.7190361 C70.1412048,23.3180723 69.8303614,21.9431325 68.9137349,20.7373494 Z M25.0081928,43.5359036 C25.1253012,38.7243373 23.9440964,23.6057831 6.01060241,13.4737349 C9.87518072,7.26987952 17.2703614,3.0626506 25.7426506,3.0626506 C27.6843373,3.0626506 29.6245783,3.23325301 31.5344578,3.52674699 C34.266988,25.3248193 29.3787952,40.0746988 28.1036145,43.4404819 C27.3243373,43.5127711 26.5363855,43.553253 25.7426506,43.553253 C25.4968675,43.5518072 25.2525301,43.5431325 25.0081928,43.5359036 Z M64.2077108,27.2506024 C63.5180723,27.5889157 59.9180723,27.5889157 58.7339759,27.5889157 L55.6226506,27.5816867 C52.9204819,27.5816867 50.8313253,28.3898795 49.1354217,29.5710843 C50.2631325,23.0751807 49.5966265,15.0640964 43.7874699,6.98216867 C49.5228916,9.27228916 53.8472289,11.8746988 55.2163855,12.7378313 C56.6419277,13.6544578 58.0920482,14.5436145 59.5016867,15.4848193 C61.5995181,16.8886747 63.4472289,18.7436145 65.140241,20.6057831 C65.3889157,20.8804819 65.633253,21.1580723 65.873253,21.44 C65.9426506,21.5224096 66.5759036,22.1903614 66.5412048,22.259759 C66.2751807,22.7874699 66.0828916,23.413494 66.1609639,24.066988 C66.213012,24.5050602 66.3590361,24.8289157 66.4645783,25.0660241 C66.4848193,25.1093976 66.5079518,25.1628916 66.526747,25.2048193 C65.8573494,26.153253 64.7946988,26.9614458 64.2077108,27.2506024 Z" id="Shape"></path>
                    <g transform="translate(55.385542, 16.349398)">
                        <circle id="Oval" cx="5.15277108" cy="5.3146988" r="1"></circle>
                        <path d="M3.90506024,0.831325301 C1.77542169,0.831325301 0.0506024096,2.55759036 0.0506024096,4.68722892 C0.0506024096,6.81686747 1.77686747,8.54313253 3.90506024,8.54313253 C6.0346988,8.54313253 7.76096386,6.81686747 7.76096386,4.68722892 C7.76096386,2.55614458 6.0346988,0.831325301 3.90506024,0.831325301 Z M5.15277108,6.87180723 C4.29542169,6.87180723 3.59566265,6.17349398 3.59566265,5.31614458 C3.59566265,4.4573494 4.2939759,3.75903614 5.15277108,3.75903614 C6.01156627,3.75903614 6.70843373,4.4573494 6.70843373,5.31614458 C6.70843373,6.17349398 6.01012048,6.87180723 5.15277108,6.87180723 Z" id="Shape"></path>
                    </g>
                </g>
                <path d="M171.639518,16.8293976 C171.591807,16.8293976 171.544096,16.8293976 171.496386,16.8308434 C167.539277,16.8987952 164.699759,19.7874699 164.699759,23.7142169 L164.699759,36.6438554 L166.881446,36.6438554 L166.881446,28.7281928 C168.188434,29.9093976 169.979759,30.5990361 171.97494,30.5990361 C175.641446,30.5990361 178.524337,27.6308434 178.524337,23.7142169 C178.524337,19.7412048 175.754217,16.8293976 171.639518,16.8293976 Z M171.528193,28.5850602 C168.867952,28.5850602 167.049157,26.4019277 167.049157,23.7142169 C167.049157,21.746506 167.874699,20.0477108 169.472289,19.28 C169.480964,19.2742169 169.491084,19.2713253 169.499759,19.266988 C169.501205,19.266988 169.502651,19.266988 169.505542,19.2655422 C170.098313,18.9937349 170.776386,18.8448193 171.526747,18.8448193 C174.353253,18.8448193 176.172049,20.9715663 176.172049,23.7156627 C176.173494,26.4583133 174.354699,28.5850602 171.528193,28.5850602 Z M221.519036,18.7551807 C220.212048,17.5739759 218.419277,16.8843373 216.425542,16.8843373 C212.759036,16.8843373 209.874699,19.8525301 209.874699,23.7691566 C209.874699,27.7436145 212.646265,30.6539759 216.759518,30.6539759 C216.807229,30.6539759 216.856386,30.6539759 216.902651,30.6525301 C218.738795,30.6207229 220.333494,29.9816867 221.51759,28.913253 L221.51759,30.2809639 L223.700723,30.2809639 L223.700723,23.7706024 L223.700723,23.5233735 L223.700723,9.34168675 L221.51759,9.34168675 L221.51759,18.7551807 L221.519036,18.7551807 Z M218.928193,28.2033735 C218.919518,28.2077108 218.909398,28.2120482 218.900723,28.2163855 C218.899277,28.2163855 218.897831,28.2178313 218.89494,28.2192771 C218.303614,28.4896386 217.624096,28.64 216.873735,28.64 C214.047229,28.64 212.228434,26.513253 212.228434,23.7706024 C212.228434,21.0279518 214.047229,18.899759 216.873735,18.899759 C219.533976,18.899759 221.352771,21.0828916 221.352771,23.7706024 C221.351325,25.7368675 220.524337,27.4356627 218.928193,28.2033735 Z M127.415904,22.5836145 C125.679518,22.2481928 124.113735,21.7725301 124.113735,20.6809639 C124.113735,19.4491566 125.485783,18.8621687 126.688675,18.8621687 C127.975422,18.8621687 128.899277,19.5055422 129.458795,20.4293976 L131.27759,19.2250602 C130.381205,17.546506 128.673735,16.846747 126.82747,16.846747 C124.391325,16.846747 121.929157,18.1609639 121.929157,20.7084337 C121.929157,23.4236145 124.055904,23.9556627 126.546988,24.5151807 C127.946506,24.8231325 129.346024,25.1860241 129.346024,26.5855422 C129.346024,28.0125301 127.835181,28.5995181 126.463133,28.5995181 C124.923373,28.5995181 123.972048,27.899759 123.104578,26.8356627 L121.369639,28.1787952 C122.657831,30.026506 124.25253,30.613494 126.463133,30.613494 C129.065542,30.613494 131.696867,29.466988 131.696867,26.4987952 C131.696867,23.8703614 129.737831,23.0303614 127.415904,22.5836145 Z M92.6881928,16.8453012 C92.6390361,16.8453012 92.5927711,16.8453012 92.5436145,16.846747 C88.5879518,16.9161446 85.746988,19.8033735 85.746988,23.7315663 L85.746988,36.6626506 L87.9301205,36.6626506 L87.9301205,28.7455422 C89.2371084,29.926747 91.0284337,30.6163855 93.0236145,30.6163855 C96.6901205,30.6163855 99.573012,27.6496386 99.573012,23.7315663 C99.573012,19.7571084 96.8028916,16.8453012 92.6881928,16.8453012 Z M92.5768675,28.6009639 C89.9180723,28.6009639 88.0992771,26.4178313 88.0992771,23.7315663 C88.0992771,21.7624096 88.9262651,20.0650602 90.5224096,19.2973494 C90.5325301,19.293012 90.5412048,19.2886747 90.5498795,19.2843373 C90.5513253,19.2843373 90.5542169,19.2828916 90.5556627,19.2828916 C91.1484337,19.0125301 91.8279518,18.8621687 92.5768675,18.8621687 C95.4033735,18.8621687 97.2236145,20.9889157 97.2236145,23.733012 C97.2221687,26.4742169 95.4033735,28.6009639 92.5768675,28.6009639 Z M102.797108,30.2795181 L104.980241,30.2795181 L104.980241,9.12048193 L102.797108,9.12048193 L102.797108,30.2795181 Z M140.01012,28.6009639 C138.078554,28.6009639 138.051084,27.2578313 138.051084,25.5792771 L138.051084,19.0298795 L141.914217,19.0298795 L141.914217,17.1821687 L138.051084,17.1821687 L138.051084,13.4592771 L135.867952,13.4592771 L135.867952,17.1821687 L133.013976,17.1821687 L133.013976,19.0298795 L135.867952,19.0298795 L135.867952,26.2226506 C135.867952,28.9363855 136.37253,30.6163855 139.478072,30.6163855 C140.290602,30.6163855 141.269398,30.4775904 142.025542,30.1407229 L141.941687,28.1542169 C141.353253,28.4607229 140.653494,28.6009639 140.01012,28.6009639 Z M202.152771,16.8453012 C199.998554,16.8453012 198.373494,18.0496386 197.787952,19.3363855 L197.731566,19.3363855 C197.731566,18.6091566 197.676627,17.8804819 197.676627,17.1807229 L195.606265,17.1807229 C195.606265,18.0496386 195.71759,19.0848193 195.71759,20.2877108 L195.71759,30.2795181 L197.900723,30.2795181 L197.900723,23.8978313 C197.900723,20.9021687 199.13253,18.8607229 201.959036,18.8607229 C204.001928,18.8607229 204.954699,20.2313253 204.954699,22.4159036 L204.954699,30.2809639 L207.137831,30.2809639 L207.137831,22.193253 C207.13494,19.0284337 205.595181,16.8453012 202.152771,16.8453012 Z M144.795663,30.2795181 L146.978795,30.2795181 L146.978795,17.1807229 L144.795663,17.1807229 L144.795663,30.2795181 Z M157.33494,18.8607229 C158.650602,18.8607229 159.714699,19.3363855 160.638554,20.4568675 L162.373494,18.9171084 C161.059277,17.4901205 159.266506,16.846747 157.336386,16.846747 C153.305542,16.846747 150.562892,19.7585542 150.562892,23.7315663 C150.562892,27.7624096 153.278072,30.6163855 157.336386,30.6163855 C159.240482,30.6163855 161.030361,29.973012 162.289639,28.5171084 L160.666024,26.9773494 C159.85494,28.0978313 158.763373,28.6009639 157.33494,28.6009639 C154.676145,28.6009639 152.912289,26.4178313 152.912289,23.7315663 C152.912289,21.0438554 154.395663,18.8607229 157.33494,18.8607229 Z M145.887229,10.4636145 C144.992289,10.4636145 144.29253,11.1908434 144.29253,12.059759 C144.29253,12.9821687 144.963373,13.6559036 145.887229,13.6559036 C146.811084,13.6559036 147.481928,12.9836145 147.481928,12.059759 C147.481928,11.1908434 146.783614,10.4636145 145.887229,10.4636145 Z M232.248193,16.8959036 C230.344096,16.8959036 228.38506,17.5392771 227.041928,18.9098795 L228.41253,20.3383133 C229.449157,19.386988 230.903614,18.9098795 232.303133,18.9098795 C234.346024,18.9098795 235.548916,19.8901205 235.548916,21.7942169 L235.548916,22.1860241 L234.708916,22.1860241 C231.490602,22.1860241 226.452048,22.4375904 226.452048,26.7763855 C226.452048,29.3224096 228.662651,30.666988 231.322892,30.666988 C231.331566,30.666988 231.338795,30.666988 231.348916,30.666988 L231.344578,30.6698795 C231.344578,30.6698795 233.699759,30.7898795 235.548916,29.6014458 L235.548916,30.2809639 L237.732049,30.2809639 L237.732049,25.266988 L237.732049,23.5233735 L237.732049,22.4375904 C237.733494,18.7421687 236.10988,16.8959036 232.248193,16.8959036 Z M235.550361,24.8722892 C235.493976,26.9990361 234.205783,28.8192771 231.687229,28.8192771 C230.036145,28.8192771 228.804337,28.2033735 228.804337,26.5508434 C228.804337,24.7884337 230.595663,24.0322892 233.365783,24.0322892 L235.548916,24.0322892 L235.548916,24.8722892 L235.550361,24.8722892 Z M186.917108,16.8959036 C185.014458,16.8959036 183.053976,17.5392771 181.710843,18.9098795 L183.082892,20.3383133 C184.118072,19.386988 185.573976,18.9098795 186.972048,18.9098795 C189.01494,18.9098795 190.219277,19.8901205 190.219277,21.7942169 L190.219277,22.1860241 L189.379277,22.1860241 C186.160964,22.1860241 181.12241,22.4375904 181.12241,26.7763855 C181.12241,29.3224096 183.334458,30.666988 185.993253,30.666988 C186.001928,30.666988 186.010602,30.666988 186.017831,30.666988 L186.01494,30.6698795 C186.01494,30.6698795 188.368675,30.7898795 190.219277,29.6014458 L190.219277,30.2809639 L192.400965,30.2809639 L192.400965,25.266988 L192.400965,23.5233735 L192.400965,22.4375904 C192.40241,18.7421687 190.778795,16.8959036 186.917108,16.8959036 Z M190.219277,24.8737349 C190.161446,27.0004819 188.874699,28.8192771 186.35759,28.8192771 C184.70506,28.8192771 183.473253,28.2033735 183.473253,26.5508434 C183.473253,24.7884337 185.264578,24.0322892 188.036145,24.0322892 L190.219277,24.0322892 L190.219277,24.8737349 Z M113.787952,16.8959036 C111.883855,16.8959036 109.926265,17.5392771 108.581687,18.9098795 L109.953735,20.3383133 C110.988916,19.386988 112.444819,18.9098795 113.844337,18.9098795 C115.887229,18.9098795 117.091566,19.8901205 117.091566,21.7942169 L117.091566,22.1860241 L116.251566,22.1860241 C113.033253,22.1860241 107.994699,22.4375904 107.994699,26.7763855 C107.994699,29.3224096 110.205301,30.666988 112.864096,30.666988 C112.872771,30.666988 112.881446,30.666988 112.89012,30.666988 L112.887229,30.6698795 C112.887229,30.6698795 115.24241,30.7898795 117.091566,29.6014458 L117.091566,30.2809639 L119.274699,30.2809639 L119.274699,25.266988 L119.274699,23.5233735 L119.274699,22.4375904 C119.273253,18.7421687 117.649639,16.8959036 113.787952,16.8959036 Z M117.09012,24.8722892 C117.033735,26.9990361 115.745542,28.8192771 113.226988,28.8192771 C111.575904,28.8192771 110.344096,28.2033735 110.344096,26.5508434 C110.344096,24.7884337 112.135422,24.0322892 114.906988,24.0322892 L117.09012,24.0322892 L117.09012,24.8722892 Z" id="Shape"></path>
            </g>
        </g>
    </g>
</svg>
